X:78
T:Farewell To Whalley Range
R:slip jig
C:Michael McGoldrick
Z:hn-slipjig-78
M:9/8
L:1/8
K:F#m
F2c BAF F2E | F2c BAc fec | ~B3 BAB BcA |1 ~B3 BAB cBA :|2 ~B3 BAB cef ||
~a3 fec fec | ~B3 BAB cef | a2f baf afe | fec Bce fec |
a2f fec fec | ~B3 BAB cef | ~a3 baf afe | fec fec BAB ||

